src/images/problem-1.svg

<svg width="262" height="201" viewBox="0 0 262 201" fill="none" xmlns="http://www.w3.org/2000/svg">
<mask id="mask0" mask-type="alpha" maskUnits="userSpaceOnUse" x="0" y="0" width="262" height="201">
<rect width="262" height="200.681" fill="white"/>
</mask>
<g mask="url(#mask0)">
<path d="M215.222 132.599C208.672 140.812 200.908 148.07 192.113 154.145C183.108 160.366 173.322 165.12 163.042 168.319C152.761 171.518 141.985 173.162 131.001 173.162C120.014 173.162 109.238 171.518 98.9562 168.319C88.6741 165.12 78.8881 160.366 69.8825 154.145C61.0871 148.07 53.3236 140.811 46.7736 132.598" stroke="#B2B2B2" stroke-linecap="round" stroke-linejoin="round"/>
<path d="M46.7738 67.8794C53.3238 59.666 61.0874 52.4075 69.8828 46.3319C78.8878 40.1113 88.6743 35.3574 98.9558 32.1582C109.238 28.959 120.015 27.3151 131.001 27.3151C141.986 27.3151 152.761 28.959 163.042 32.1582C173.322 35.3574 183.107 40.1113 192.113 46.3319C200.908 52.4075 208.673 59.6654 215.223 67.8783" stroke="#B2B2B2" stroke-linecap="round" stroke-linejoin="round"/>
<path fill-rule="evenodd" clip-rule="evenodd" d="M227.826 96.4388C228.796 98.8748 228.796 101.602 227.826 104.038C212.502 142.503 174.927 169.69 131.001 169.69C87.0672 169.69 49.4914 142.502 34.1738 104.037C33.2044 101.602 33.2044 98.8754 34.1738 96.4399C49.4914 57.9744 87.0672 30.7877 131.001 30.7877C174.927 30.7877 212.502 57.9739 227.826 96.4388Z" stroke="#1A1A1A" stroke-linecap="round" stroke-linejoin="round"/>
<path fill-rule="evenodd" clip-rule="evenodd" d="M143.153 100.239C143.153 93.5258 137.711 88.0846 130.999 88.0846C124.286 88.0846 118.845 93.5258 118.845 100.239C118.845 106.951 124.286 112.393 130.999 112.393C137.711 112.393 143.153 106.951 143.153 100.239Z" stroke="#1A1A1A" stroke-linecap="round" stroke-linejoin="round"/>
<path fill-rule="evenodd" clip-rule="evenodd" d="M151.836 100.239C151.836 77.2244 142.508 58.5683 131 58.5683C119.493 58.5683 110.165 77.2244 110.165 100.239C110.165 123.253 119.493 141.909 131 141.909C142.508 141.909 151.836 123.253 151.836 100.239Z" stroke="#B2B2B2" stroke-linecap="round" stroke-linejoin="round"/>
<path fill-rule="evenodd" clip-rule="evenodd" d="M131 121.074C154.015 121.074 172.671 111.745 172.671 100.239C172.671 88.7312 154.015 79.4034 131 79.4034C107.986 79.4034 89.3291 88.7312 89.3291 100.239C89.3291 111.745 107.986 121.074 131 121.074Z" stroke="#B2B2B2" stroke-linecap="round" stroke-linejoin="round"/>
<path fill-rule="evenodd" clip-rule="evenodd" d="M172.671 100.239C172.671 77.2244 154.015 58.5683 131 58.5683C107.986 58.5683 89.3291 77.2244 89.3291 100.239C89.3291 123.253 107.986 141.909 131 141.909C154.015 141.909 172.671 123.253 172.671 100.239Z" stroke="#1A1A1A" stroke-linecap="round" stroke-linejoin="round"/>
<path d="M138.737 44.4939C145.976 45.5018 152.897 47.9122 159.133 51.5122C165.367 55.1116 170.916 59.9012 175.408 65.6657C179.901 71.4314 183.337 78.1726 185.347 85.6758" stroke="#231F20" stroke-linecap="round" stroke-linejoin="round"/>
<path d="M123.263 155.983C116.025 154.975 109.103 152.565 102.868 148.965C96.6334 145.366 91.084 140.576 86.5921 134.811C82.0997 129.046 78.6635 122.305 76.6534 114.801" stroke="#231F20" stroke-linecap="round" stroke-linejoin="round"/>
<path d="M166.631 48.1892L138.737 44.4938" stroke="#231F20" stroke-linecap="round" stroke-linejoin="round"/>
<path d="M95.3691 152.288L123.263 155.983" stroke="#231F20" stroke-linecap="round" stroke-linejoin="round"/>
<path d="M177.224 131.406C179.229 128.44 180.953 125.271 182.364 121.937C183.774 118.602 184.87 115.102 185.612 111.473C186.355 107.844 186.745 104.087 186.745 100.239" stroke="#B2B2B2" stroke-linecap="round" stroke-linejoin="round"/>
<path d="M84.7759 69.0711C82.7719 72.0367 81.0466 75.2058 79.6363 78.5404C78.2259 81.8751 77.1306 85.3753 76.388 89.0042C75.6455 92.6332 75.2553 96.3899 75.2553 100.238" stroke="#B2B2B2" stroke-linecap="round" stroke-linejoin="round"/>
</g>
</svg>

<svg width="262" height="201" fill="none" xmlns="http://www.w3.org/2000/svg"><mask id="a" maskUnits="userSpaceOnUse" x="0" y="0" width="262" height="201"><path fill="#fff" d="M0 0h262v200.681H0z"/></mask><g mask="url(#a)" stroke-linecap="round" stroke-linejoin="round"><path d="M215.222 132.599a108.101 108.101 0 01-23.109 21.546 107.075 107.075 0 01-29.071 14.174c-10.281 3.199-21.057 4.843-32.041 4.843-10.987 0-21.763-1.644-32.045-4.843a107.07 107.07 0 01-29.074-14.174 108.096 108.096 0 01-23.108-21.547M46.774 67.88a108.104 108.104 0 0123.109-21.548 107.082 107.082 0 0129.073-14.174c10.282-3.199 21.059-4.843 32.045-4.843 10.985 0 21.76 1.644 32.041 4.843a107.105 107.105 0 0129.071 14.174 108.126 108.126 0 0123.11 21.546" stroke="#B2B2B2"/><path clip-rule="evenodd" d="M227.826 96.439c.97 2.436.97 5.163 0 7.599-15.324 38.465-52.899 65.652-96.825 65.652-43.934 0-81.51-27.188-96.827-65.653a10.286 10.286 0 010-7.597C49.49 57.974 87.067 30.788 131 30.788c43.926 0 81.501 27.186 96.825 65.65z" stroke="#1A1A1A"/><path clip-rule="evenodd" d="M143.153 100.239c0-6.713-5.442-12.154-12.154-12.154-6.713 0-12.154 5.44-12.154 12.154 0 6.712 5.441 12.154 12.154 12.154 6.712 0 12.154-5.442 12.154-12.154z" stroke="#1A1A1A"/><path clip-rule="evenodd" d="M151.836 100.239c0-23.015-9.328-41.67-20.836-41.67-11.507 0-20.835 18.655-20.835 41.67 0 23.014 9.328 41.67 20.835 41.67 11.508 0 20.836-18.656 20.836-41.67z" stroke="#B2B2B2"/><path clip-rule="evenodd" d="M131 121.074c23.015 0 41.671-9.329 41.671-20.835 0-11.508-18.656-20.836-41.671-20.836-23.014 0-41.67 9.328-41.67 20.836 0 11.506 18.656 20.835 41.67 20.835z" stroke="#B2B2B2"/><path clip-rule="evenodd" d="M172.671 100.239c0-23.015-18.656-41.67-41.671-41.67-23.014 0-41.67 18.655-41.67 41.67 0 23.014 18.656 41.67 41.67 41.67 23.015 0 41.671-18.656 41.671-41.67z" stroke="#1A1A1A"/><path d="M138.737 44.494a56.358 56.358 0 0120.396 7.018 56.362 56.362 0 0116.275 14.154 56.076 56.076 0 019.939 20.01M123.263 155.983a56.354 56.354 0 01-20.395-7.018 56.345 56.345 0 01-16.276-14.154 56.074 56.074 0 01-9.939-20.01M166.631 48.19l-27.894-3.696M95.37 152.288l27.893 3.695" stroke="#231F20"/><path d="M177.224 131.406a55.597 55.597 0 005.14-9.469 55.317 55.317 0 003.248-10.464 55.963 55.963 0 001.133-11.234M84.776 69.071a55.58 55.58 0 00-5.14 9.47 55.326 55.326 0 00-3.248 10.463 55.996 55.996 0 00-1.133 11.234" stroke="#B2B2B2"/></g></svg>
